www/assets/icons/portrait.svg

<svg xmlns="http://www.w3.org/2000/svg" width="24" height="24" viewBox="0 0 24 24" fill='currentColor'><path d="M12 12.25c1.24 0 2.25-1.01 2.25-2.25S13.24 7.75 12 7.75 9.75 8.76 9.75 10s1.01 2.25 2.25 2.25m4.5 4c0-1.5-3-2.25-4.5-2.25s-4.5.75-4.5 2.25V17h9zM19 3H5c-1.1 0-2 .9-2 2v14c0 1.1.9 2 2 2h14c1.1 0 2-.9 2-2V5c0-1.1-.9-2-2-2m0 16H5V5h14z"/></svg>

<svg width="24" height="24" viewBox="0 0 24 24" xmlns="http://www.w3.org/2000/svg" fill='currentColor'><path d="M12 12.25C13.24 12.25 14.25 11.24 14.25 10C14.25 8.76 13.24 7.75 12 7.75C10.76 7.75 9.75 8.76 9.75 10C9.75 11.24 10.76 12.25 12 12.25ZM16.5 16.25C16.5 14.75 13.5 14 12 14C10.5 14 7.5 14.75 7.5 16.25V17H16.5V16.25ZM19 3H5C3.9 3 3 3.9 3 5V19C3 20.1 3.9 21 5 21H19C20.1 21 21 20.1 21 19V5C21 3.9 20.1 3 19 3ZM19 19H5V5H19V19Z"/></svg>
